X: 1
T: The Wonder
R: hornpipe
M: 4/4
L: 1/8
K: Gmaj
|:(3DEF | GdBG FcAF | (3GFG BG D2GF | EGAB cBAG |Fd (3d^cd ed=cA|
GdBG FcAF | (3GFG BG D2GF | Eedc BAGF|A2G2 G2 :|
|:AG | FAd^c dBAG | FAd^c dfed | ^cdef (3gfe ^ce | d^cde d2 =c2 |
BcBA ^GBe2 | ABA=G FAd2 | egfe (3ded (3cBA | GgdB G2 :||


Tune 337	Setting 27503

